packages/icons/svgs/duotone/Source=locked.svg

<svg width="24" height="24" viewBox="0 0 24 24" fill="none" xmlns="http://www.w3.org/2000/svg">
<g clip-path="url(#clip0_2830_37)">
<path opacity="0.5" d="M13 17C13 16.4477 12.5523 16 12 16C11.4477 16 11 16.4477 11 17C11 17.5523 11.4477 18 12 18C12.5523 18 13 17.5523 13 17ZM15 17C15 18.6569 13.6569 20 12 20C10.3431 20 9 18.6569 9 17C9 15.3431 10.3431 14 12 14C13.6569 14 15 15.3431 15 17Z" fill="black" style="fill:black;fill-opacity:1;"/>
<path d="M20 13C20 12.4477 19.5523 12 19 12H5C4.44772 12 4 12.4477 4 13V21C4 21.5523 4.44772 22 5 22H19C19.5523 22 20 21.5523 20 21V13ZM22 21C22 22.6569 20.6569 24 19 24H5C3.34315 24 2 22.6569 2 21V13C2 11.3431 3.34315 10 5 10H19C20.6569 10 22 11.3431 22 13V21Z" fill="black" style="fill:black;fill-opacity:1;"/>
<path d="M16 6.99976V5.98999C16.0104 4.9424 15.6044 3.93354 14.8711 3.1853C14.1835 2.48372 13.2611 2.06493 12.2852 2.00659L12.0898 1.99976H11.9902C10.9427 1.98933 9.93378 2.39552 9.18555 3.12866C8.43737 3.86187 8.01083 4.86243 8 5.90991V6.99976C8 7.55204 7.55228 7.99976 7 7.99976C6.44772 7.99976 6 7.55204 6 6.99976V5.8894L6.01074 5.59448C6.09882 4.12503 6.72889 2.73626 7.78516 1.70093C8.90981 0.598766 10.4256 -0.0123054 12 0.000732422L12.1104 -0.000244141C13.6882 0.0159578 15.1953 0.65889 16.2998 1.78589C17.4017 2.91045 18.013 4.42566 18 5.99976V6.99976C18 7.55204 17.5523 7.99976 17 7.99976C16.4477 7.99976 16 7.55204 16 6.99976Z" fill="black" style="fill:black;fill-opacity:1;"/>
</g>
<defs>
<clipPath id="clip0_2830_37">
<rect width="24" height="24" fill="white" style="fill:white;fill-opacity:1;"/>
</clipPath>
</defs>
</svg>

<svg xmlns="http://www.w3.org/2000/svg" width="24" height="24" viewBox="0 0 24 24"><g clip-path="url(#a)"><path d="M13 17a1 1 0 1 0-2 0 1 1 0 0 0 2 0m2 0a3 3 0 1 1-6 0 3 3 0 0 1 6 0" opacity=".55"/><path d="M20 13a1 1 0 0 0-1-1H5a1 1 0 0 0-1 1v8a1 1 0 0 0 1 1h14a1 1 0 0 0 1-1zm2 8a3 3 0 0 1-3 3H5a3 3 0 0 1-3-3v-8a3 3 0 0 1 3-3h14a3 3 0 0 1 3 3zM16 7V5.99a3.95 3.95 0 0 0-3.715-3.983L12.09 2h-.1A3.95 3.95 0 0 0 8 5.91V7a1 1 0 0 1-2 0V5.89l.01-.296A5.95 5.95 0 0 1 12 .001L12.11 0A5.95 5.95 0 0 1 18 6v1a1 1 0 1 1-2 0"/></g><defs><clipPath id="a"><path fill="#fff" d="M0 0h24v24H0z"/></clipPath></defs></svg>
